bernoullicharts/bernstein_bits.svg

<?xml version="1.0" encoding="utf-8" standalone="no"?>
<!DOCTYPE svg PUBLIC "-//W3C//DTD SVG 1.1//EN"
  "http://www.w3.org/Graphics/SVG/1.1/DTD/svg11.dtd">
<!-- Created with matplotlib (https://matplotlib.org/) -->
<svg height="345.6pt" version="1.1" viewBox="0 0 460.8 345.6" width="460.8pt" xmlns="http://www.w3.org/2000/svg" xmlns:xlink="http://www.w3.org/1999/xlink">
 <defs>
  <style type="text/css">
*{stroke-linecap:butt;stroke-linejoin:round;}
  </style>
 </defs>
 <g id="figure_1">
  <g id="patch_1">
   <path d="M 0 345.6 
L 460.8 345.6 
L 460.8 0 
L 0 0 
z
" style="fill:#ffffff;"/>
  </g>
  <g id="axes_1">
   <g id="patch_2">
    <path d="M 57.6 307.584 
L 414.72 307.584 
L 414.72 41.472 
L 57.6 41.472 
z
" style="fill:#ffffff;"/>
   </g>
   <g id="matplotlib.axis_1">
    <g id="xtick_1">
     <g id="line2d_1">
      <defs>
       <path d="M 0 0 
L 0 3.5 
" id="m807ad14c2d" style="stroke:#000000;stroke-width:0.8;"/>
      </defs>
      <g>
       <use style="stroke:#000000;stroke-width:0.8;" x="73.800255" xlink:href="#m807ad14c2d" y="307.584"/>
      </g>
     </g>
     <g id="text_1">
      <text style="font-family:DejaVu Sans;font-size:10px;font-style:normal;font-weight:normal;text-anchor:middle;" transform="rotate(-0, 73.800255, 322.182437)" x="73.800255" y="322.182437">0.0</text>
     </g>
    </g>
    <g id="xtick_2">
     <g id="line2d_2">
      <g>
       <use style="stroke:#000000;stroke-width:0.8;" x="138.744153" xlink:href="#m807ad14c2d" y="307.584"/>
      </g>
     </g>
     <g id="text_2">
      <text style="font-family:DejaVu Sans;font-size:10px;font-style:normal;font-weight:normal;text-anchor:middle;" transform="rotate(-0, 138.744153, 322.182437)" x="138.744153" y="322.182437">0.2</text>
     </g>
    </g>
    <g id="xtick_3">
     <g id="line2d_3">
      <g>
       <use style="stroke:#000000;stroke-width:0.8;" x="203.688051" xlink:href="#m807ad14c2d" y="307.584"/>
      </g>
     </g>
     <g id="text_3">
      <text style="font-family:DejaVu Sans;font-size:10px;font-style:normal;font-weight:normal;text-anchor:middle;" transform="rotate(-0, 203.688051, 322.182437)" x="203.688051" y="322.182437">0.4</text>
     </g>
    </g>
    <g id="xtick_4">
     <g id="line2d_4">
      <g>
       <use style="stroke:#000000;stroke-width:0.8;" x="268.631949" xlink:href="#m807ad14c2d" y="307.584"/>
      </g>
     </g>
     <g id="text_4">
      <text style="font-family:DejaVu Sans;font-size:10px;font-style:normal;font-weight:normal;text-anchor:middle;" transform="rotate(-0, 268.631949, 322.182437)" x="268.631949" y="322.182437">0.6</text>
     </g>
    </g>
    <g id="xtick_5">
     <g id="line2d_5">
      <g>
       <use style="stroke:#000000;stroke-width:0.8;" x="333.575847" xlink:href="#m807ad14c2d" y="307.584"/>
      </g>
     </g>
     <g id="text_5">
      <text style="font-family:DejaVu Sans;font-size:10px;font-style:normal;font-weight:normal;text-anchor:middle;" transform="rotate(-0, 333.575847, 322.182437)" x="333.575847" y="322.182437">0.8</text>
     </g>
    </g>
    <g id="xtick_6">
     <g id="line2d_6">
      <g>
       <use style="stroke:#000000;stroke-width:0.8;" x="398.519745" xlink:href="#m807ad14c2d" y="307.584"/>
      </g>
     </g>
     <g id="text_6">
      <text style="font-family:DejaVu Sans;font-size:10px;font-style:normal;font-weight:normal;text-anchor:middle;" transform="rotate(-0, 398.519745, 322.182437)" x="398.519745" y="322.182437">1.0</text>
     </g>
    </g>
    <g id="text_7">
     <text style="font-family:DejaVu Sans;font-size:10px;font-style:normal;font-weight:normal;text-anchor:middle;" transform="rotate(-0, 236.16, 335.860562)" x="236.16" y="335.860562">Probability</text>
    </g>
   </g>
   <g id="matplotlib.axis_2">
    <g id="ytick_1">
     <g id="line2d_7">
      <defs>
       <path d="M 0 0 
L -3.5 0 
" id="m8a74cb6193" style="stroke:#000000;stroke-width:0.8;"/>
      </defs>
      <g>
       <use style="stroke:#000000;stroke-width:0.8;" x="57.6" xlink:href="#m8a74cb6193" y="274.619502"/>
      </g>
     </g>
     <g id="text_8">
      <text style="font-family:DejaVu Sans;font-size:10px;font-style:normal;font-weight:normal;text-anchor:end;" transform="rotate(-0, 50.6, 278.41872)" x="50.6" y="278.41872">5.8</text>
     </g>
    </g>
    <g id="ytick_2">
     <g id="line2d_8">
      <g>
       <use style="stroke:#000000;stroke-width:0.8;" x="57.6" xlink:href="#m8a74cb6193" y="235.974134"/>
      </g>
     </g>
     <g id="text_9">
      <text style="font-family:DejaVu Sans;font-size:10px;font-style:normal;font-weight:normal;text-anchor:end;" transform="rotate(-0, 50.6, 239.773353)" x="50.6" y="239.773353">5.9</text>
     </g>
    </g>
    <g id="ytick_3">
     <g id="line2d_9">
      <g>
       <use style="stroke:#000000;stroke-width:0.8;" x="57.6" xlink:href="#m8a74cb6193" y="197.328767"/>
      </g>
     </g>
     <g id="text_10">
      <text style="font-family:DejaVu Sans;font-size:10px;font-style:normal;font-weight:normal;text-anchor:end;" transform="rotate(-0, 50.6, 201.127986)" x="50.6" y="201.127986">6.0</text>
     </g>
    </g>
    <g id="ytick_4">
     <g id="line2d_10">
      <g>
       <use style="stroke:#000000;stroke-width:0.8;" x="57.6" xlink:href="#m8a74cb6193" y="158.683399"/>
      </g>
     </g>
     <g id="text_11">
      <text style="font-family:DejaVu Sans;font-size:10px;font-style:normal;font-weight:normal;text-anchor:end;" transform="rotate(-0, 50.6, 162.482618)" x="50.6" y="162.482618">6.1</text>
     </g>
    </g>
    <g id="ytick_5">
     <g id="line2d_11">
      <g>
       <use style="stroke:#000000;stroke-width:0.8;" x="57.6" xlink:href="#m8a74cb6193" y="120.038032"/>
      </g>
     </g>
     <g id="text_12">
      <text style="font-family:DejaVu Sans;font-size:10px;font-style:normal;font-weight:normal;text-anchor:end;" transform="rotate(-0, 50.6, 123.837251)" x="50.6" y="123.837251">6.2</text>
     </g>
    </g>
    <g id="ytick_6">
     <g id="line2d_12">
      <g>
       <use style="stroke:#000000;stroke-width:0.8;" x="57.6" xlink:href="#m8a74cb6193" y="81.392665"/>
      </g>
     </g>
     <g id="text_13">
      <text style="font-family:DejaVu Sans;font-size:10px;font-style:normal;font-weight:normal;text-anchor:end;" transform="rotate(-0, 50.6, 85.191883)" x="50.6" y="85.191883">6.3</text>
     </g>
    </g>
    <g id="ytick_7">
     <g id="line2d_13">
      <g>
       <use style="stroke:#000000;stroke-width:0.8;" x="57.6" xlink:href="#m8a74cb6193" y="42.747297"/>
      </g>
     </g>
     <g id="text_14">
      <text style="font-family:DejaVu Sans;font-size:10px;font-style:normal;font-weight:normal;text-anchor:end;" transform="rotate(-0, 50.6, 46.546516)" x="50.6" y="46.546516">6.4</text>
     </g>
    </g>
    <g id="text_15">
     <text style="font-family:DejaVu Sans;font-size:10px;font-style:normal;font-weight:normal;text-anchor:middle;" transform="rotate(-90, 28.617187, 174.528)" x="28.617187" y="174.528">Average Bits Consumed Per Call</text>
    </g>
   </g>
   <g id="line2d_14">
    <path clip-path="url(#pa7e9faeb01)" d="M 73.832727 251.432281 
L 77.112066 171.822824 
L 80.391405 219.74308 
L 83.670744 239.065764 
L 86.950083 225.153431 
L 90.229421 175.687361 
L 93.50876 159.456307 
L 96.788099 177.233176 
L 100.067438 53.568 
L 103.346777 214.332728 
L 106.626116 283.89439 
L 109.905455 207.376562 
L 113.184793 205.05784 
L 116.464132 139.360716 
L 119.743471 177.233176 
L 123.02281 142.452345 
L 126.302149 263.025891 
L 129.581488 178.77899 
L 132.860826 191.145508 
L 136.140165 268.436243 
L 139.419504 126.221291 
L 142.698843 166.412473 
L 145.978182 268.436243 
L 149.257521 195.782952 
L 152.53686 233.655412 
L 155.816198 192.691323 
L 159.095537 159.456307 
L 162.374876 247.567744 
L 165.654215 216.65145 
L 168.933554 260.707169 
L 172.212893 184.962249 
L 175.492231 177.233176 
L 178.77157 195.010045 
L 182.050909 222.834709 
L 185.330248 269.20915 
L 188.609587 191.918415 
L 191.888926 55.886722 
L 195.168264 204.284933 
L 198.447603 225.926339 
L 201.726942 207.376562 
L 205.006281 220.515987 
L 208.28562 211.241099 
L 211.564959 272.30078 
L 214.844298 208.14947 
L 218.123636 212.786914 
L 221.402975 154.045955 
L 224.682314 186.508064 
L 227.961653 171.822824 
L 231.240992 202.739118 
L 234.520331 197.328767 
L 237.799669 195.010045 
L 241.079008 183.416435 
L 244.358347 155.59177 
L 247.637686 201.193304 
L 250.917025 196.555859 
L 254.196364 194.237137 
L 257.475702 156.364677 
L 260.755041 186.508064 
L 264.03438 167.958288 
L 267.313719 203.512026 
L 270.593058 201.193304 
L 273.872397 212.014006 
L 277.151736 159.456307 
L 280.431074 177.233176 
L 283.710413 259.934262 
L 286.989752 143.99816 
L 290.269091 185.735157 
L 293.54843 150.954326 
L 296.827769 170.27701 
L 300.107107 217.424358 
L 303.386446 125.448383 
L 306.665785 209.695284 
L 309.945124 186.508064 
L 313.224463 171.049917 
L 316.503802 236.747042 
L 319.78314 205.830748 
L 323.062479 245.249022 
L 326.341818 204.284933 
L 329.621157 240.611578 
L 332.900496 196.555859 
L 336.179835 226.699246 
L 339.459174 130.858735 
L 342.738512 295.488 
L 346.017851 218.197265 
L 349.29719 163.320843 
L 352.576529 143.99816 
L 355.855868 205.05784 
L 359.135207 195.782952 
L 362.414545 289.304741 
L 365.693884 221.288895 
L 368.973223 142.452345 
L 372.252562 216.65145 
L 375.531901 143.225252 
L 378.81124 235.201227 
L 382.090579 184.962249 
L 385.369917 171.049917 
L 388.649256 178.77899 
L 391.928595 254.523911 
L 395.207934 147.862696 
L 398.487273 130.085827 
" style="fill:none;stroke:#1f77b4;stroke-linecap:square;stroke-width:1.5;"/>
   </g>
   <g id="patch_3">
    <path d="M 57.6 307.584 
L 57.6 41.472 
" style="fill:none;stroke:#000000;stroke-linecap:square;stroke-linejoin:miter;stroke-width:0.8;"/>
   </g>
   <g id="patch_4">
    <path d="M 414.72 307.584 
L 414.72 41.472 
" style="fill:none;stroke:#000000;stroke-linecap:square;stroke-linejoin:miter;stroke-width:0.8;"/>
   </g>
   <g id="patch_5">
    <path d="M 57.6 307.584 
L 414.72 307.584 
" style="fill:none;stroke:#000000;stroke-linecap:square;stroke-linejoin:miter;stroke-width:0.8;"/>
   </g>
   <g id="patch_6">
    <path d="M 57.6 41.472 
L 414.72 41.472 
" style="fill:none;stroke:#000000;stroke-linecap:square;stroke-linejoin:miter;stroke-width:0.8;"/>
   </g>
   <g id="text_16">
    <text style="font-family:DejaVu Sans;font-size:12px;font-style:normal;font-weight:normal;text-anchor:middle;" transform="rotate(-0, 236.16, 35.472)" x="236.16" y="35.472">Avg. Bits Consumed by Bernstein Algorithm</text>
   </g>
   <g id="legend_1">
    <g id="patch_7">
     <path d="M 328.034063 64.150125 
L 407.72 64.150125 
Q 409.72 64.150125 409.72 62.150125 
L 409.72 48.472 
Q 409.72 46.472 407.72 46.472 
L 328.034063 46.472 
Q 326.034063 46.472 326.034063 48.472 
L 326.034063 62.150125 
Q 326.034063 64.150125 328.034063 64.150125 
z
" style="fill:#ffffff;opacity:0.8;stroke:#cccccc;stroke-linejoin:miter;"/>
    </g>
    <g id="line2d_15">
     <path d="M 330.034063 54.570438 
L 350.034063 54.570438 
" style="fill:none;stroke:#1f77b4;stroke-linecap:square;stroke-width:1.5;"/>
    </g>
    <g id="line2d_16"/>
    <g id="text_17">
     <text style="font-family:DejaVu Sans;font-size:10px;font-style:normal;font-weight:normal;text-anchor:start;" transform="rotate(-0, 358.034063, 58.070438)" x="358.034063" y="58.070438">Bernstein</text>
    </g>
   </g>
  </g>
 </g>
 <defs>
  <clipPath id="pa7e9faeb01">
   <rect height="266.112" width="357.12" x="57.6" y="41.472"/>
  </clipPath>
 </defs>
</svg>

<svg height="460.8" viewBox="0 0 460.8 345.6" width="614.4" xmlns="http://www.w3.org/2000/svg" xmlns:xlink="http://www.w3.org/1999/xlink"><defs><style>*{stroke-linecap:butt;stroke-linejoin:round}</style></defs><g id="figure_1"><path d="M0 345.6h460.8V0H0z" fill="#fff" id="patch_1"/><g id="axes_1"><path d="M57.6 307.584h357.12V41.472H57.6z" fill="#fff" id="patch_2"/><g id="matplotlib.axis_1"><g id="xtick_1"><g id="line2d_1"><defs><path d="M0 0v3.5" id="m807ad14c2d" stroke="#000" stroke-width=".8"/></defs><use x="73.8" xlink:href="#m807ad14c2d" y="307.584" stroke="#000" stroke-width=".8"/></g><text x="73.8" y="322.182" font-family="DejaVu Sans" font-size="10" font-weight="400" text-anchor="middle" id="text_1">0.0</text></g><g id="xtick_2"><use x="138.744" xlink:href="#m807ad14c2d" y="307.584" stroke="#000" stroke-width=".8" id="line2d_2"/><text x="138.744" y="322.182" font-family="DejaVu Sans" font-size="10" font-weight="400" text-anchor="middle" id="text_2">0.2</text></g><g id="xtick_3"><use x="203.688" xlink:href="#m807ad14c2d" y="307.584" stroke="#000" stroke-width=".8" id="line2d_3"/><text x="203.688" y="322.182" font-family="DejaVu Sans" font-size="10" font-weight="400" text-anchor="middle" id="text_3">0.4</text></g><g id="xtick_4"><use x="268.632" xlink:href="#m807ad14c2d" y="307.584" stroke="#000" stroke-width=".8" id="line2d_4"/><text x="268.632" y="322.182" font-family="DejaVu Sans" font-size="10" font-weight="400" text-anchor="middle" id="text_4">0.6</text></g><g id="xtick_5"><use x="333.576" xlink:href="#m807ad14c2d" y="307.584" stroke="#000" stroke-width=".8" id="line2d_5"/><text x="333.576" y="322.182" font-family="DejaVu Sans" font-size="10" font-weight="400" text-anchor="middle" id="text_5">0.8</text></g><g id="xtick_6"><use x="398.52" xlink:href="#m807ad14c2d" y="307.584" stroke="#000" stroke-width=".8" id="line2d_6"/><text x="398.52" y="322.182" font-family="DejaVu Sans" font-size="10" font-weight="400" text-anchor="middle" id="text_6">1.0</text></g><text x="236.16" y="335.861" font-family="DejaVu Sans" font-size="10" font-weight="400" text-anchor="middle" id="text_7">Probability</text></g><g id="matplotlib.axis_2"><g id="ytick_1"><g id="line2d_7"><defs><path d="M0 0h-3.5" id="m8a74cb6193" stroke="#000" stroke-width=".8"/></defs><use x="57.6" xlink:href="#m8a74cb6193" y="274.62" stroke="#000" stroke-width=".8"/></g><text x="50.6" y="278.419" font-family="DejaVu Sans" font-size="10" font-weight="400" text-anchor="end" id="text_8">5.8</text></g><g id="ytick_2"><use x="57.6" xlink:href="#m8a74cb6193" y="235.974" stroke="#000" stroke-width=".8" id="line2d_8"/><text x="50.6" y="239.773" font-family="DejaVu Sans" font-size="10" font-weight="400" text-anchor="end" id="text_9">5.9</text></g><g id="ytick_3"><use x="57.6" xlink:href="#m8a74cb6193" y="197.329" stroke="#000" stroke-width=".8" id="line2d_9"/><text x="50.6" y="201.128" font-family="DejaVu Sans" font-size="10" font-weight="400" text-anchor="end" id="text_10">6.0</text></g><g id="ytick_4"><use x="57.6" xlink:href="#m8a74cb6193" y="158.683" stroke="#000" stroke-width=".8" id="line2d_10"/><text x="50.6" y="162.483" font-family="DejaVu Sans" font-size="10" font-weight="400" text-anchor="end" id="text_11">6.1</text></g><g id="ytick_5"><use x="57.6" xlink:href="#m8a74cb6193" y="120.038" stroke="#000" stroke-width=".8" id="line2d_11"/><text x="50.6" y="123.837" font-family="DejaVu Sans" font-size="10" font-weight="400" text-anchor="end" id="text_12">6.2</text></g><g id="ytick_6"><use x="57.6" xlink:href="#m8a74cb6193" y="81.393" stroke="#000" stroke-width=".8" id="line2d_12"/><text x="50.6" y="85.192" font-family="DejaVu Sans" font-size="10" font-weight="400" text-anchor="end" id="text_13">6.3</text></g><g id="ytick_7"><use x="57.6" xlink:href="#m8a74cb6193" y="42.747" stroke="#000" stroke-width=".8" id="line2d_13"/><text x="50.6" y="46.547" font-family="DejaVu Sans" font-size="10" font-weight="400" text-anchor="end" id="text_14">6.4</text></g><text transform="rotate(-90 28.617 174.528)" x="28.617" y="174.528" font-family="DejaVu Sans" font-size="10" font-weight="400" text-anchor="middle" id="text_15">Average Bits Consumed Per Call</text></g><path clip-path="url(#pa7e9faeb01)" d="M73.833 251.432l3.28-79.61 3.278 47.921 3.28 19.323 3.28-13.913 3.278-49.466 3.28-16.23 3.28 17.776 3.278-123.665 3.28 160.765 3.28 69.561 3.278-76.517 3.28-2.32 3.28-65.696 3.278 37.872 3.28-34.78 3.28 120.573 3.278-84.247 3.28 12.367 3.28 77.29 3.279-142.215 3.279 40.191 3.28 102.024 3.279-72.653 3.279 37.872 3.28-40.964 3.279-33.235 3.279 88.112 3.28-30.917 3.279 44.056 3.279-75.745 3.28-7.729 3.279 17.777 3.279 27.825 3.28 46.374 3.279-77.29 3.279-136.032 3.28 148.398 3.279 21.641 3.279-18.55 3.28 13.14 3.279-9.275 3.279 61.06 3.28-64.152 3.279 4.638 3.279-58.741 3.28 32.462 3.279-14.685 3.279 30.916 3.28-5.41 3.279-2.319 3.279-11.594 3.28-27.824 3.279 45.601 3.279-4.637 3.28-2.319 3.279-37.872 3.279 30.143 3.28-18.55 3.279 35.554 3.28-2.319 3.278 10.821 3.28-52.558 3.28 17.777 3.278 82.701 3.28-115.936 3.28 41.737 3.278-34.78 3.28 19.322 3.28 47.147 3.278-91.976 3.28 84.247 3.28-23.187 3.278-15.458 3.28 65.697 3.28-30.916 3.278 39.418 3.28-40.964 3.28 36.327 3.278-44.056 3.28 30.143 3.28-95.84 3.279 164.629 3.279-77.29 3.28-54.877 3.279-19.323 3.279 61.06 3.28-9.275 3.279 93.522 3.279-68.016 3.28-78.837 3.279 74.2 3.279-73.427 3.28 91.976 3.279-50.239 3.279-13.912 3.28 7.729 3.279 75.745 3.279-106.661 3.28-17.777" fill="none" stroke="#1f77b4" stroke-linecap="square" stroke-width="1.5" id="line2d_14"/><path d="M57.6 307.584V41.472" fill="none" stroke="#000" stroke-linecap="square" stroke-width=".8" id="patch_3"/><path d="M414.72 307.584V41.472" fill="none" stroke="#000" stroke-linecap="square" stroke-width=".8" id="patch_4"/><path d="M57.6 307.584h357.12" fill="none" stroke="#000" stroke-linecap="square" stroke-width=".8" id="patch_5"/><path d="M57.6 41.472h357.12" fill="none" stroke="#000" stroke-linecap="square" stroke-width=".8" id="patch_6"/><text x="236.16" y="35.472" font-family="DejaVu Sans" font-size="12" font-weight="400" text-anchor="middle" id="text_16">Avg. Bits Consumed by Bernstein Algorithm</text><g id="legend_1"><path d="M328.034 64.15h79.686q2 0 2-2V48.472q0-2-2-2h-79.686q-2 0-2 2V62.15q0 2 2 2z" fill="#fff" opacity=".8" stroke="#ccc" id="patch_7"/><path d="M330.034 54.57h20" fill="none" stroke="#1f77b4" stroke-linecap="square" stroke-width="1.5" id="line2d_15"/><text x="358.034" y="58.07" font-family="DejaVu Sans" font-size="10" font-weight="400" id="text_17">Bernstein</text></g></g></g><defs><clipPath id="pa7e9faeb01"><path d="M57.6 41.472h357.12v266.112H57.6z"/></clipPath></defs></svg>
